packages/foundations/icons/Health/Football.svg

<svg width="24" height="24" viewBox="0 0 24 24" fill="none" xmlns="http://www.w3.org/2000/svg">
<path fill-rule="evenodd" clip-rule="evenodd" d="M18.7175 5.28253C15.0075 1.57255 8.99247 1.57255 5.28249 5.28253C1.5725 8.99251 1.5725 15.0076 5.28249 18.7176C8.99247 22.4275 15.0075 22.4275 18.7175 18.7176C22.4275 15.0076 22.4275 8.99251 18.7175 5.28253ZM4.22183 4.22187C8.51759 -0.0738945 15.4824 -0.0738945 19.7782 4.22187C24.0739 8.51764 24.0739 15.4825 19.7782 19.7782C15.4824 24.074 8.51759 24.074 4.22183 19.7782C-0.0739417 15.4825 -0.0739417 8.51764 4.22183 4.22187Z" fill="#3D474D"/>
<path fill-rule="evenodd" clip-rule="evenodd" d="M8.5013 3.41013L11.1787 2.69273L11.6224 1.00644C11.9659 0.994717 12.3098 0.998996 12.653 1.01928L12.1438 2.95479L14.135 4.94605L17.3175 4.10871L17.7213 2.60196C18.4535 3.04855 19.1448 3.58855 19.7782 4.22187C20.5223 4.96596 21.1375 5.79007 21.6238 6.66657L20.7796 6.89276L19.6819 10.4929L21.3231 12.1341L22.9936 11.6247C23.0055 11.9746 23.0008 12.325 22.9794 12.6745L21.6895 13.0678L20.9434 15.8523L21.8977 16.8065C21.85 16.9047 21.8007 17.0023 21.75 17.0993L21.2631 17.5862L20.1139 16.4369L17.6697 17.0918L16.7078 20.2467L17.8065 21.3455C16.1383 22.384 14.2524 22.9336 12.3537 22.9943L12.7345 21.5733L10.2865 19.1254L7.22926 19.9446L6.70995 21.6477C6.40985 21.483 6.11581 21.3032 5.82894 21.1084L6.35985 19.3672L4.64631 17.6537L2.85967 18.1238C2.66458 17.8332 2.48483 17.5355 2.32044 17.2316L4.53649 16.6485L5.2282 14.067L2.78028 11.6191L1.00042 12.096C0.982638 10.0467 1.534 7.99338 2.65452 6.19345L4.05839 7.59732L7.2414 6.75984L7.91667 4.23971L6.76742 3.09047L7.47453 2.38336L8.5013 3.41013ZM6.0986 13.5232L8.49826 12.8802L9.41175 9.40835L7.68149 7.67808L4.10152 8.62001L3.48738 10.912L6.0986 13.5232ZM9.43359 13.2554L11.3525 15.1743L14.672 14.1621L15.3413 11.6643L12.6892 9.01229L10.3877 9.62898L9.43359 13.2554ZM15.9259 10.8348L18.7641 10.0743L19.7084 6.97711L17.7581 5.02681L14.1777 5.96887L13.5188 8.42766L15.9259 10.8348ZM10.8304 18.255L11.3778 16.2121L15.0851 15.0817L16.7343 16.7309L15.6542 20.2733L13.4416 20.8662L10.8304 18.255Z" fill="#3D474D"/>
</svg>

<svg xmlns="http://www.w3.org/2000/svg" fill="none" viewBox="0 0 24 24" width="100%" height="100%">
  <path fill="#3D474D" fill-rule="evenodd" d="M18.718 5.283A9.5 9.5 0 1 0 5.282 18.718 9.5 9.5 0 0 0 18.718 5.283ZM4.222 4.222c4.296-4.296 11.26-4.296 15.556 0 4.296 4.296 4.296 11.26 0 15.556-4.296 4.296-11.26 4.296-15.556 0-4.296-4.295-4.296-11.26 0-15.556Z" clip-rule="evenodd"/>
  <path fill="#3D474D" fill-rule="evenodd" d="m8.501 3.41 2.678-.717.443-1.687c.344-.011.688-.007 1.031.013l-.51 1.936 1.992 1.991 3.182-.837.404-1.507a11.057 11.057 0 0 1 3.903 4.065l-.844.226-1.098 3.6 1.641 1.641 1.67-.51c.013.35.008.701-.014 1.05l-1.29.394-.746 2.784.955.954c-.048.099-.097.196-.148.293l-.487.487-1.15-1.15-2.443.656-.962 3.155 1.099 1.099a10.976 10.976 0 0 1-5.453 1.648l.38-1.42-2.447-2.449-3.058.82-.519 1.703a11 11 0 0 1-.881-.54l.53-1.74-1.713-1.714-1.786.47c-.195-.29-.375-.588-.54-.892l2.216-.584.692-2.581-2.448-2.448-1.78.477a10.984 10.984 0 0 1 1.655-5.903l1.403 1.404 3.183-.837.676-2.52-1.15-1.15.708-.707L8.5 3.41ZM6.1 13.523l2.4-.643.913-3.472-1.73-1.73-3.58.942-.615 2.292L6.1 13.523Zm3.335-.268 1.918 1.92 3.32-1.013.67-2.498-2.653-2.652-2.301.617-.954 3.626Zm6.492-2.42 2.838-.76.944-3.098-1.95-1.95-3.58.942-.66 2.459 2.408 2.407Zm-5.096 7.42.548-2.043 3.707-1.13 1.65 1.649-1.08 3.542-2.213.593-2.612-2.611Z" clip-rule="evenodd"/>
</svg>
